!!!COM: Bach, Johann Sebastian
!!!CDT: 1685/3//-1750/7/28/
!!!OTL@@DE: Meinen Jesum lass ich nicht
!!!AGN: 4-Part Chorale
!!!SCT: BH 299
!!!SCT: BWV 380
**harm	**root	**kern	**kern	**kern	**kern
!	!	!bass	!tenor	!alto	!soprno
*	*Iorgan	*Iorgan	*Iorgan	*Iorgan	*Iorgan
*M4/4	*M4/4	*M4/4	*M4/4	*M4/4	*M4/4
*met(c)	*met(c)	*met(c)	*met(c)	*met(c)	*met(c)
*MM60	*MM60	*MM60	*MM60	*MM60	*MM60
*k[b-e-a-d-]	*k[b-e-a-d-]	*k[b-e-a-d-]	*k[b-e-a-d-]	*k[b-e-a-d-]	*k[b-e-a-d-]
*A-:	*A-:	*A-:	*A-:	*A-:	*A-:
=1-	=1-	=1-	=1-	=1-	=1-
I	4EE-	8A-	4a-	4cc	4ee-
.	.	8B-	.	.	.
Ib	4EE-	8c	4a-	4cc	4ee-
.	.	8A-	.	.	.
IV	4AA-	8d-	4f	4a-	4ff
.	.	8c	.	.	.
iib	4FF	8d-	4b-	4dd-	4ff
.	.	8B-	.	.	.
=2	=2	=2	=2	=2	=2
V7	4BB-	4e-	8b-	8dd-	4gg
.	.	.	8a-	8cc	.
V7	4BB-	4E-	8b-	4dd-	8gg
.	.	.	8g	.	16aa-
.	.	.	.	.	16bb-
I;	2EE-;	2A-;	2e-;	2cc;	2aa-;
=3	=3	=3	=3	=3	=3
V	4BB-	8E-	8g	4ee-	4bb-
.	.	8F	8a-	.	.
Vb	4BB-	8G	8b-	8ee-	4bb-
.	.	8E-	8g	8dd-	.
vi	4CC	8F	8g	4.cc	4aa-
.	.	8G	16f	.	.
.	.	.	16e	.	.
vi	8CC	8A-	4f	.	4aa-
V7/V	8FF	8B-	.	8dd	.
=4	=4	=4	=4	=4	=4
iii	4GG	8c	4e-	8ee-	4gg
.	.	8B-	.	8dd	.
I	8EE-	8A-	4e-	8cc	8ff
vi7	8CC	8F	.	8a-	16gg
.	.	.	.	.	16aa-
V/V	4FF	4B-	8e-	4.b-	2ff
.	.	.	8c	.	.
V/V	4FF	4BB-	4d	.	.
.	.	.	.	8a-	.
=5	=5	=5	=5	=5	=5
V;	2BB-;	2E-;	2B-;	2g;	2ee-;
I	4EE-	8A-	8c	4a-	4ee-
.	.	8B-	8d-y	.	.
Ib	4EE-	8c	8e-	4a-	4ee-
.	.	8A-	8c	.	.
=6	=6	=6	=6	=6	=6
IV	4AA-	8d-	8d-	4a-	4ff
.	.	8c	8e-	.	.
ii	4FF	8B-	4f	4dd-	4ff
.	.	8A-	.	.	.
V7b	8BB-	8G	8B-	8dd-	4ee-
viio/ii	8EE	8A	8c	8cc	.
ii	4FF	4B-	8d-	4b-	8dd-
.	.	.	8e-	.	8cc
!!linebreak: 2
=7	=7	=7	=7	=7	=7
VI;	2CC;	2F;	2f;	2a;	2cc;
viiob/II	4EE	8c	8e-	8a	4ee-
.	.	8B-	8d-	8b-	.
V7b/II	4CC	8A	4c	8cc	4ee-
.	.	8F	.	8a	.
=8	=8	=8	=8	=8	=8
ii	4FF	8B-	4d-	4f	4dd-
.	.	8A-y	.	.	.
V7b	4BB-	8G	4e-	8b-	4dd-
.	.	8E-	.	8g	.
I	4EE-	8A-	4e-	4a-	4cc
.	.	8c	.	.	.
ii7b	8FF	8d-	8f	4a-	8b-
ii7	8FF	8B-	8d-	.	16cc
.	.	.	.	.	16dd-
=9	=9	=9	=9	=9	=9
V	4BB-	4e-	8e-	4a-	2b-
.	.	.	8c	.	.
V7	4BB-	4E-	4d-	4g	.
I;	2EE-;	2A-;	2c;	2e-;	2a-;
=10	=10	=10	=10	=10	=10
I	4EE-	8a-	4a-	4cc	4ee-
.	.	8g-	.	.	.
vi7	4CC	8f	4a-	4cc	4ee-
.	.	8e-	.	.	.
IV	4AA-	8d-	4a-	4dd-	4ff
.	.	8c	.	.	.
ii	4FF	8B-	4b-	8dd-	4ff
.	.	8A-	.	8cc	.
=11	=11	=11	=11	=11	=11
viiob/vi	4BB	8G	8e	4b-	4gg
.	.	8F	8f	.	.
V/vi	8GG	8E	8g	4cc	8gg
V/vi	8GG	8C	8e	.	16aa-
.	.	.	.	.	16bb-
vi;	2CC;	2F;	2f;	2cc;	2aa-;
=12	=12	=12	=12	=12	=12
I	4EE-	8A-	4c	4a-	4ee-
.	.	8G-	.	.	.
vi7	4CC	8F	4c	4a-	8ee-
.	.	8E-	.	.	16ff
.	.	.	.	.	16gg-
IV	8AA-	8D-	8d-	8a-	8ff
V	8BB-	8E-	8B-	8g	8ee-
IVb	8AA-	8F	8A-	4a-	8dd-
Ic	8EE-	8E-	8e-	.	8cc
=13	=13	=13	=13	=13	=13
ii7b	4FF	4D-	4f	4a-	8b-
.	.	.	.	.	16cc
.	.	.	.	.	16dd-
V	4BB-	4E-	8e-	4g	4b-
.	.	.	8d-	.	.
I;	2EE-;	2A-;	2c;	2e-;	2a-;
==	==	==	==	==	==
*-	*-	*-	*-	*-	*-
!!chor2scor: -l 2 -s 0.6 -o %b.pmx
!!!YEC: Copyright 1994, David Huron
!!!YEC: Changes/Additions 2001 by Craig Stuart Sapp
!!!YEN: United States of America
!!!SMA: 371 Bach Chorales, edited by Ludwig Erk, C.F. Peters
!!!PDT: 1850, 1865
!!!ONB: Harmony and Root analysis done manually
